X:497
T: Yueya wugeng
N: C1165
O: China,Liaoning
S: Zhongguo Minge Jing Xuan, 79]
N: ]
R: Xiaodiao]
M: 2/4
L: 1/16
K: G
B4d2ed | B2B4dB | A3Bd2e2 | BdBAG2E2 | B2A4G2 | A6z2 |
B4d2ed | B2B4dB | A3Bd2e2 | BdBAG2E2 | B2A4G2 | A2D2E4 |
B3dB2A2 | B2G4A2 | G8 |
B2E2B2Bd | A2G2E4 |
B2E2B2Bd | A2AGE4 |
G2G4EG | A2A4B2 | d2d4e2 | BdBAG2E2 |
B3dF2E2 | D4B,DE2 | D8

@@@ Tune index: 6498
